icon/bts/print.svg

<svg xmlns="http://www.w3.org/2000/svg" width="32" height="32" fill="none" stroke="currentcolor" stroke-linecap="round" stroke-linejoin="round" stroke-width="2"><path d="M7 25H2V9h28v16h-5M7 19v11h18V19ZM25 9V2H7v7m15 5h3"/></svg>

<svg id="i-print" xmlns="http://www.w3.org/2000/svg" viewBox="0 0 32 32" fill="none" stroke="currentcolor" stroke-linecap="round" stroke-linejoin="round" stroke-width="2" height="1em" width="1em">
  <path d="M7 25 L2 25 2 9 30 9 30 25 25 25 M7 19 L7 30 25 30 25 19 Z M25 9 L25 2 7 2 7 9 M22 14 L25 14"/>
</svg>
